tools/download-figma-icons/icons/action/enter.svg

<svg width="24" height="24" viewBox="0 0 24 24" fill="none" xmlns="http://www.w3.org/2000/svg">
<path fill-rule="evenodd" clip-rule="evenodd" d="M20.9952 5.90415C20.9471 5.43141 20.5479 5.0625 20.0625 5.0625H15.9375L15.8416 5.06734C15.3689 5.11535 15 5.51459 15 6L15.0048 6.09585C15.0528 6.56859 15.4521 6.9375 15.9375 6.9375H19.125V12.5625H5.38169L7.98985 9.83581L8.05261 9.7632C8.34469 9.38839 8.31117 8.84584 7.9604 8.51032C7.58624 8.15242 6.99279 8.16561 6.6349 8.53977L2.5099 12.8523L2.44896 12.9226C2.16456 13.2853 2.18487 13.8085 2.5099 14.1483L6.6349 18.4608L6.70466 18.5267C7.06612 18.8352 7.60962 18.8258 7.9604 18.4903L8.02632 18.4205C8.33476 18.0591 8.32538 17.5155 7.98985 17.1648L5.38113 14.4375H20.0625L20.1583 14.4327C20.6311 14.3847 21 13.9854 21 13.5V6L20.9952 5.90415Z" fill="black"/>
</svg>

<svg width="24" height="24" viewBox="0 0 24 24" fill="none" xmlns="http://www.w3.org/2000/svg"><path fill-rule="evenodd" clip-rule="evenodd" d="M20.995 5.904a.938.938 0 0 0-.933-.841h-4.125l-.095.004A.938.938 0 0 0 15 6l.005.096a.938.938 0 0 0 .932.841h3.188v5.625H5.382L7.99 9.837l.063-.073A.938.938 0 0 0 6.635 8.54L2.51 12.852l-.061.07a.938.938 0 0 0 .06 1.226l4.126 4.313.07.066a.937.937 0 0 0 1.255-.037l.066-.07a.938.938 0 0 0-.036-1.255l-2.61-2.727h14.681l.096-.005A.938.938 0 0 0 21 13.5V6l-.005-.096Z" fill="currentColor"/></svg>
